FINK
CUT[UND SO FINDEN WIR UNS WIEDER]
REG[Europa, Mitteleuropa, Deutschland]
KEY[F0800  16  F 6/8]
MEL[5__+1_  5__3_4_.32_  3__1_
    5_+1_+3_  +2_7_5_+1_6_4#_  5__0_
    5__+1_  5__3_4_.32_  3__1_
    6__6_  5_.43_4_.32_  1__0_ //] >>
FCT[Geselligkeits -, Moral - Lied]
